tools/download-figma-icons/icons/solid/paperless.svg

<svg width="24" height="24" viewBox="0 0 24 24" fill="none" xmlns="http://www.w3.org/2000/svg">
<path fill-rule="evenodd" clip-rule="evenodd" d="M20.9251 19.8675C22.7926 17.76 23.9176 14.9925 23.9176 11.9625C23.9176 5.355 18.5626 0 11.9551 0C8.92511 0 6.15761 1.1325 4.05011 2.9925L6.34511 5.2875C6.62261 4.935 7.04261 4.7025 7.53011 4.7025H13.2001V4.71C13.3951 4.71 13.5901 4.7775 13.7326 4.92L17.5801 8.7675C17.7226 8.91 17.7901 9.105 17.7901 9.3H17.7976V16.74L20.9251 19.8675ZM19.8677 20.9325C17.7602 22.7925 14.9927 23.9175 11.9552 23.9175C5.35518 23.9175 0.000178746 18.5625 0.000178746 11.9625C0.000178746 8.9325 1.13268 6.16575 2.98518 4.05L6.03018 7.095V17.1675C6.03018 17.9925 6.69768 18.66 7.53018 18.66H16.2977C16.6652 18.66 16.9877 18.525 17.2502 18.315L19.8677 20.9325ZM16.2975 15.2402V10.0502H13.2C12.7875 10.0502 12.45 9.71265 12.45 9.30015V6.20265H7.52995V6.4719L16.2975 15.2402ZM7.52995 17.168L16.095 17.1598L7.52995 8.59477V17.168Z" fill="black"/>
</svg>

<svg width="24" height="24" viewBox="0 0 24 24" fill="none" xmlns="http://www.w3.org/2000/svg"><path fill-rule="evenodd" clip-rule="evenodd" d="M20.925 19.867a11.873 11.873 0 0 0 2.993-7.905C23.918 5.356 18.563 0 11.955 0A11.91 11.91 0 0 0 4.05 2.993l2.295 2.294a1.5 1.5 0 0 1 1.185-.585h5.67v.008c.195 0 .39.067.533.21l3.847 3.848c.143.142.21.337.21.532h.008v7.44l3.127 3.128Zm-1.057 1.066a11.909 11.909 0 0 1-7.913 2.985C5.355 23.918 0 18.563 0 11.963c0-3.03 1.133-5.797 2.985-7.913L6.03 7.095v10.073c0 .825.668 1.492 1.5 1.492h8.768c.367 0 .69-.135.952-.345l2.618 2.617Zm-3.57-5.693v-5.19H13.2a.752.752 0 0 1-.75-.75V6.203H7.53v.269l8.768 8.768ZM7.53 17.168l8.565-.008L7.53 8.595v8.573Z" fill="currentColor"/></svg>
